austria/municipalities/20607.svg

<?xml version="1.0" encoding="UTF-8" standalone="no"?>
<!-- Created with Inkscape (http://www.inkscape.org/) -->
<svg
   xmlns:dc="http://purl.org/dc/elements/1.1/"
   xmlns:cc="http://web.resource.org/cc/"
   xmlns:rdf="http://www.w3.org/1999/02/22-rdf-syntax-ns#"
   xmlns:svg="http://www.w3.org/2000/svg"
   xmlns="http://www.w3.org/2000/svg"
   xmlns:xlink="http://www.w3.org/1999/xlink"
   xmlns:sodipodi="http://inkscape.sourceforge.net/DTD/sodipodi-0.dtd"
   xmlns:inkscape="http://www.inkscape.org/namespaces/inkscape"
   width="690.09003"
   height="558.28998pt"
   id="svg1332"
   sodipodi:version="0.32"
   inkscape:version="0.43"
   sodipodi:docname="wappen_flattach.svg"
   version="1.0"
   sodipodi:docbase="D:\grafik\wappen\orte_kaernten">
  <defs
     id="defs3" />
  <sodipodi:namedview
     inkscape:document-units="mm"
     id="base"
     pagecolor="#ffffff"
     bordercolor="#666666"
     borderopacity="1.0"
     inkscape:pageopacity="0.0"
     inkscape:pageshadow="2"
     inkscape:zoom="0.64"
     inkscape:cx="687.54255"
     inkscape:cy="323.30613"
     inkscape:current-layer="layer1"
     inkscape:window-width="1280"
     inkscape:window-height="977"
     inkscape:window-x="-4"
     inkscape:window-y="-4"
     showgrid="false"
     showguides="true"
     inkscape:guide-bbox="true" />
  <metadata
     id="metadata4">
    <rdf:RDF>
      <cc:Work
         rdf:about="">
        <dc:format>image/svg+xml</dc:format>
        <dc:type
           rdf:resource="http://purl.org/dc/dcmitype/StillImage" />
        <dc:title>Wappen der Gemeinde Flattach</dc:title>
        <dc:date>05. Juni 2006</dc:date>
        <dc:creator>
          <cc:Agent>
            <dc:title>Michael Glanznig</dc:title>
          </cc:Agent>
        </dc:creator>
        <dc:rights>
          <cc:Agent>
            <dc:title />
          </cc:Agent>
        </dc:rights>
        <dc:description>Coat of arms of Flattach, Austria</dc:description>
        <cc:license
           rdf:resource="http://creativecommons.org/licenses/by-sa/2.0/" />
      </cc:Work>
      <cc:License
         rdf:about="http://creativecommons.org/licenses/by-sa/2.0/at/">
        <cc:permits
           rdf:resource="http://web.resource.org/cc/Reproduction" />
        <cc:permits
           rdf:resource="http://web.resource.org/cc/Distribution" />
        <cc:requires
           rdf:resource="http://web.resource.org/cc/Notice" />
        <cc:requires
           rdf:resource="http://web.resource.org/cc/Attribution" />
        <cc:permits
           rdf:resource="http://web.resource.org/cc/DerivativeWorks" />
        <cc:requires
           rdf:resource="http://web.resource.org/cc/ShareAlike" />
      </cc:License>
    </rdf:RDF>
  </metadata>
  <g
     inkscape:label="Layer 1"
     inkscape:groupmode="layer"
     id="layer1"
     style="display:inline">
    <a
       id="a3977" />
    <path
       style="fill:#089ad6;fill-opacity:1;fill-rule:evenodd;stroke:none;stroke-width:21.57084084;stroke-linecap:butt;stroke-linejoin:miter;stroke-miterlimit:4;stroke-dasharray:none;stroke-opacity:1"
       d="M 22.69512,30.618551 L 665.50615,30.618551 C 653.34788,275.21063 637.4239,427.19672 635.19502,438.99731 C 604.88176,599.48772 454.82313,672.99264 345.79912,674.04105 C 238.9322,675.08946 76.815495,593.64953 54.526001,439.56583 C 53.877279,435.08136 36.412664,279.98354 22.69512,30.618551 z "
       id="path1340"
       sodipodi:nodetypes="ccszsc" />
    <path
       style="fill:#ffffff;fill-opacity:1;fill-rule:evenodd;stroke:#000000;stroke-width:5;stroke-linecap:butt;stroke-linejoin:miter;stroke-miterlimit:4;stroke-dasharray:none;stroke-opacity:1"
       d="M 54.56382,360.87921 L 205.51181,116.76013 L 255.11811,219.51603 L 343.70079,42.80737 L 432.28346,217.73698 L 476.58997,117.43335 L 634.9513,360.91031 L 633.59375,358.79999 C 635.65382,588.37961 488.06162,632.53399 417.96875,666.61249 L 270.3125,668.95624 C 153.31332,613.99879 33.562904,561.95441 54.56382,360.87921 z "
       id="path2230"
       sodipodi:nodetypes="ccccccccccc" />
    <path
       style="fill:#000000;fill-opacity:1;fill-rule:evenodd;stroke:none;stroke-width:1px;stroke-linecap:butt;stroke-linejoin:miter;stroke-opacity:1"
       d="M 61.435106,360.80478 L 132.93608,360.80478 L 345.77522,654.1536 L 550.71486,360.93651 L 628.80115,360.93651 C 624.94724,399.09878 623.87674,406.44233 622.93313,418.813 C 617.28327,492.88218 565.14173,559.44915 537.56916,583.58671 C 486.45034,628.33712 414.08473,659.90442 345.88613,659.93177 C 277.68717,659.95912 207.25857,630.556 145.77229,578.20548 C 96.960373,536.64614 76.525732,476.07118 70.2649,441.04157 C 65.110732,412.20379 65.781208,400.12877 61.435106,360.80478 z "
       id="path2226"
       sodipodi:nodetypes="cccccsszssc" />
    <path
       style="fill:none;fill-opacity:1;fill-rule:evenodd;stroke:#000000;stroke-width:21.57084084;stroke-linecap:butt;stroke-linejoin:miter;stroke-miterlimit:4;stroke-dasharray:none;stroke-opacity:1;display:inline"
       d="M 22.69512,30.618551 L 665.50615,30.618551 C 653.34788,275.21063 637.4239,427.19672 635.19502,438.99731 C 604.88176,599.48772 454.82313,672.99264 345.79912,674.04105 C 238.9322,675.08946 76.815495,593.64953 54.526001,439.56583 C 53.877279,435.08136 36.412664,279.98354 22.69512,30.618551 z "
       id="path3108"
       sodipodi:nodetypes="ccszsc" />
    <g
       id="g10219">
      <g
         id="use11857"
         transform="matrix(1.088355,-0.524427,0.655413,0.870843,-259.435,238.3189)"
         style="stroke:#f8673f;stroke-opacity:1">
        <path
           sodipodi:nodetypes="cccc"
           id="path13639"
           d="M 422.85006,249.49409 C 430.47886,253.20388 404.82353,283.92621 395,295.36249 L 386,271.86249 L 422.85006,249.49409 z "
           style="fill:#000000;fill-opacity:1;fill-rule:evenodd;stroke:none;stroke-width:0.87993753px;stroke-linecap:butt;stroke-linejoin:miter;stroke-opacity:1" />
        <path
           sodipodi:nodetypes="ccc"
           id="path13641"
           d="M 393.46989,292.2604 C 400.62248,276.20155 407.15271,262.64547 421.42532,250.01574 C 401.09199,239.74902 384.70711,267.54495 385.70711,283.44828"
           style="fill:#f34944;fill-opacity:1;fill-rule:evenodd;stroke:#000000;stroke-width:2.63981533;stroke-linecap:butt;stroke-linejoin:miter;stroke-miterlimit:4;stroke-dasharray:none;stroke-opacity:1" />
      </g>
      <use
         height="697.86249"
         width="690.09003"
         transform="matrix(0.890126,-0.447687,0.463883,0.890126,-124.1237,189.4163)"
         id="use11861"
         xlink:href="#use11859"
         y="0"
         x="0" />
      <use
         height="697.86249"
         width="690.09003"
         transform="matrix(0.94746,-0.314243,0.32561,0.94746,-104.6353,129.6542)"
         id="use11859"
         xlink:href="#use11857"
         y="0"
         x="0" />
      <use
         height="697.86249"
         width="690.09003"
         transform="matrix(0.925667,-0.371677,0.385123,0.925667,-114.9641,155.119)"
         id="use11863"
         xlink:href="#use11861"
         y="0"
         x="0" />
      <use
         height="697.86249"
         width="690.09003"
         transform="matrix(0.920652,-0.383508,0.397381,0.920652,-116.5906,159.6299)"
         id="use11865"
         xlink:href="#use11863"
         y="0"
         x="0" />
      <use
         height="697.86249"
         width="690.09003"
         transform="matrix(0.965767,-0.254844,0.264064,0.965767,-82.27035,112.3549)"
         id="use11867"
         xlink:href="#use11865"
         y="0"
         x="0" />
      <use
         height="697.86249"
         width="690.09003"
         transform="matrix(0.917083,-0.391675,0.405844,0.917083,-118.6543,163.6433)"
         id="use11869"
         xlink:href="#use11867"
         y="0"
         x="0" />
      <use
         height="697.86249"
         width="690.09003"
         transform="matrix(0.936334,-0.344927,0.357405,0.936334,-106.2646,141.0672)"
         id="use11871"
         xlink:href="#use11869"
         y="0"
         x="0" />
      <use
         height="697.86249"
         width="690.09003"
         transform="matrix(0.95294,-0.297819,0.308593,0.95294,-88.24375,120.7365)"
         id="use11873"
         xlink:href="#use11871"
         y="0"
         x="0" />
      <use
         height="697.86249"
         width="690.09003"
         transform="matrix(0.930427,-0.360022,0.373046,0.930427,-110.4269,148.6702)"
         id="use11875"
         xlink:href="#use11873"
         y="0"
         x="0" />
      <use
         height="697.86249"
         width="690.09003"
         transform="matrix(0.897192,-0.433863,0.449558,0.897192,-133.7167,187.9878)"
         id="use11877"
         xlink:href="#use11875"
         y="0"
         x="0" />
      <use
         height="697.86249"
         width="690.09003"
         transform="matrix(0.910123,-0.407041,0.421766,0.910123,-122.1949,174.678)"
         id="use11879"
         xlink:href="#use11877"
         y="0"
         x="0" />
      <use
         height="697.86249"
         width="690.09003"
         transform="matrix(0.936887,-0.343475,0.355901,0.936887,-105.3066,136.6568)"
         id="use11881"
         xlink:href="#use11879"
         y="0"
         x="0" />
      <use
         height="697.86249"
         width="690.09003"
         transform="matrix(0.924191,-0.375203,0.388776,0.924191,-113.895,153.9695)"
         id="use11883"
         xlink:href="#use11881"
         y="0"
         x="0" />
      <use
         height="697.86249"
         width="690.09003"
         transform="matrix(0.923622,-0.383305,0.383305,0.923622,-113.3511,160.5467)"
         id="use4092"
         xlink:href="#use11883"
         y="0"
         x="0" />
      <use
         height="697.86249"
         width="690.09003"
         transform="matrix(0.926448,-0.376423,0.376423,0.926448,-111.7589,154.5379)"
         id="use4094"
         xlink:href="#use4092"
         y="0"
         x="0" />
      <path
         sodipodi:nodetypes="ccccccccccccccccc"
         id="path4089"
         d="M 423.41564,390.93777 C 409.1121,394.46896 403.78682,404.17445 406.32664,419.60648 C 389.42912,416.68207 381.75567,424.82653 379.56742,439.55324 C 366.65987,432.37824 355.70139,434.29894 347.21184,447.74133 C 338.09573,436.67262 324.38835,433.09238 314.18572,442.9242 C 310.13257,429.27897 302.75155,420.44066 285.51701,425.8352 C 287.62784,411.52485 282.58207,401.61856 265.57025,399.07599 C 269.59423,387.25182 272.17978,375.64894 257.38216,366.7204 C 266.51283,357.07986 269.25647,346.27806 262.19929,333.69429 C 276.5764,328.14456 284.02815,319.39851 279.28829,305.02558 C 295.87985,303.95616 305.65119,297.92658 306.04751,285.07882 C 319.37054,289.32851 330.94979,288.78278 338.40309,276.89072 C 350.16674,286.04585 361.13851,287.28222 371.42921,281.70786 C 376.69716,292.9177 384.57669,300.76979 400.09792,298.79685 C 400.07876,312.90288 406.80568,321.76194 420.04468,325.55607 C 415.08829,337.73867 416.99333,348.67374 428.23277,357.91165 C 416.48492,368.92036 416.027,379.92906 423.41564,390.93777 z "
         style="fill:#f34944;fill-opacity:1;stroke:#000000;stroke-width:3;stroke-linejoin:round;stroke-miterlimit:4;stroke-dashoffset:0;stroke-opacity:1;stroke-dasharray:none" />
      <path
         transform="matrix(1.565175,0,0,1.565175,-196.5035,-230.0086)"
         d="M 379.6875 377.94061 A 34.765625 34.765625 0 1 1  310.15625,377.94061 A 34.765625 34.765625 0 1 1  379.6875 377.94061 z"
         sodipodi:ry="34.765625"
         sodipodi:rx="34.765625"
         sodipodi:cy="377.94061"
         sodipodi:cx="344.92188"
         id="path4085"
         style="opacity:1;fill:none;fill-opacity:1;stroke:#000000;stroke-width:1.91671789;stroke-linejoin:round;stroke-miterlimit:4;stroke-dasharray:none;stroke-dashoffset:0;stroke-opacity:1"
         sodipodi:type="arc" />
      <path
         transform="matrix(1.329213,0,0,1.329213,-115.1149,-140.8289)"
         d="M 379.6875 377.94061 A 34.765625 34.765625 0 1 1  310.15625,377.94061 A 34.765625 34.765625 0 1 1  379.6875 377.94061 z"
         sodipodi:ry="34.765625"
         sodipodi:rx="34.765625"
         sodipodi:cy="377.94061"
         sodipodi:cx="344.92188"
         id="path4087"
         style="opacity:1;fill:none;fill-opacity:1;stroke:#000000;stroke-width:2.25697398;stroke-linejoin:round;stroke-miterlimit:4;stroke-dasharray:none;stroke-dashoffset:0;stroke-opacity:1;display:inline"
         sodipodi:type="arc" />
    </g>
  </g>
</svg>

<svg xmlns="http://www.w3.org/2000/svg" xmlns:xlink="http://www.w3.org/1999/xlink" width="690.09" height="744.387" version="1.0"><g style="display:inline"><path style="fill:#089ad6;fill-opacity:1;fill-rule:evenodd;stroke:none;stroke-width:21.57084084;stroke-linecap:butt;stroke-linejoin:miter;stroke-miterlimit:4;stroke-dasharray:none;stroke-opacity:1" d="M22.695 30.619h642.811c-12.158 244.592-28.082 396.578-30.311 408.378-30.313 160.49-180.372 233.996-289.396 235.044C238.932 675.09 76.815 593.65 54.526 439.566c-.649-4.485-18.113-159.582-31.83-408.947z"/><path style="fill:#fff;fill-opacity:1;fill-rule:evenodd;stroke:#000;stroke-width:5;stroke-linecap:butt;stroke-linejoin:miter;stroke-miterlimit:4;stroke-dasharray:none;stroke-opacity:1" d="m54.564 360.88 150.948-244.12 49.606 102.756 88.583-176.709 88.582 174.93 44.307-100.304L634.951 360.91l-1.357-2.11c2.06 229.58-145.532 273.734-215.625 307.812l-147.656 2.344C153.313 614 33.563 561.954 54.563 360.88z"/><path style="fill:#000;fill-opacity:1;fill-rule:evenodd;stroke:none;stroke-width:1px;stroke-linecap:butt;stroke-linejoin:miter;stroke-opacity:1" d="M61.435 360.805h71.501l212.84 293.349 204.939-293.217H628.8c-3.854 38.162-4.924 45.505-5.868 57.876-5.65 74.07-57.791 140.636-85.364 164.774-51.119 44.75-123.484 76.317-191.683 76.345-68.199.027-138.627-29.376-200.114-81.727-48.812-41.559-69.246-102.134-75.507-137.163-5.154-28.838-4.484-40.913-8.83-80.237z"/><path style="fill:none;fill-opacity:1;fill-rule:evenodd;stroke:#000;stroke-width:21.57084084;stroke-linecap:butt;stroke-linejoin:miter;stroke-miterlimit:4;stroke-dasharray:none;stroke-opacity:1;display:inline" d="M22.695 30.619h642.811c-12.158 244.592-28.082 396.578-30.311 408.378-30.313 160.49-180.372 233.996-289.396 235.044C238.932 675.09 76.815 593.65 54.526 439.566c-.649-4.485-18.113-159.582-31.83-408.947z"/><g id="b" style="stroke:#f8673f;stroke-opacity:1"><path d="M422.85 249.494c7.629 3.71-18.026 34.432-27.85 45.868l-9-23.5 36.85-22.368z" style="fill:#000;fill-opacity:1;fill-rule:evenodd;stroke:none;stroke-width:.87993753px;stroke-linecap:butt;stroke-linejoin:miter;stroke-opacity:1" transform="matrix(1.08835 -.52443 .65541 .87084 -259.435 238.319)"/><path d="M393.47 292.26c7.152-16.058 13.683-29.615 27.955-42.244-20.333-10.267-36.718 17.529-35.718 33.432" style="fill:#f34944;fill-opacity:1;fill-rule:evenodd;stroke:#000;stroke-width:2.63981533;stroke-linecap:butt;stroke-linejoin:miter;stroke-miterlimit:4;stroke-dasharray:none;stroke-opacity:1" transform="matrix(1.08835 -.52443 .65541 .87084 -259.435 238.319)"/></g><use height="697.862" width="690.09" transform="matrix(.89013 -.44769 .46388 .89013 -124.124 189.416)" id="c" xlink:href="#a" y="0" x="0"/><use height="697.862" width="690.09" transform="matrix(.94746 -.31424 .32561 .94746 -104.635 129.654)" id="a" xlink:href="#b" y="0" x="0"/><use height="697.862" width="690.09" transform="matrix(.92567 -.37168 .38512 .92567 -114.964 155.119)" id="d" xlink:href="#c" y="0" x="0"/><use height="697.862" width="690.09" transform="matrix(.92065 -.3835 .39738 .92065 -116.59 159.63)" id="e" xlink:href="#d" y="0" x="0"/><use height="697.862" width="690.09" transform="matrix(.96577 -.25484 .26406 .96577 -82.27 112.355)" id="f" xlink:href="#e" y="0" x="0"/><use height="697.862" width="690.09" transform="matrix(.91708 -.39167 .40584 .91708 -118.654 163.643)" id="g" xlink:href="#f" y="0" x="0"/><use height="697.862" width="690.09" transform="matrix(.93633 -.34493 .3574 .93633 -106.265 141.067)" id="h" xlink:href="#g" y="0" x="0"/><use height="697.862" width="690.09" transform="matrix(.95294 -.29782 .3086 .95294 -88.244 120.737)" id="i" xlink:href="#h" y="0" x="0"/><use height="697.862" width="690.09" transform="matrix(.93043 -.36002 .37305 .93043 -110.427 148.67)" id="j" xlink:href="#i" y="0" x="0"/><use height="697.862" width="690.09" transform="matrix(.8972 -.43386 .44956 .8972 -133.717 187.988)" id="k" xlink:href="#j" y="0" x="0"/><use height="697.862" width="690.09" transform="matrix(.91012 -.40704 .42177 .91012 -122.195 174.678)" id="l" xlink:href="#k" y="0" x="0"/><use height="697.862" width="690.09" transform="matrix(.93689 -.34347 .3559 .93689 -105.307 136.657)" id="m" xlink:href="#l" y="0" x="0"/><use height="697.862" width="690.09" transform="matrix(.9242 -.3752 .38878 .9242 -113.895 153.97)" id="n" xlink:href="#m" y="0" x="0"/><use height="697.862" width="690.09" transform="rotate(-22.539 346.178 364.7)" id="o" xlink:href="#n" y="0" x="0"/><use height="697.862" width="690.09" transform="rotate(-22.112 339.566 363.247)" xlink:href="#o"/><path d="M423.416 390.938c-14.304 3.531-19.63 13.236-17.09 28.668-16.897-2.924-24.57 5.22-26.759 19.947-12.907-7.175-23.866-5.254-32.355 8.188-9.116-11.068-22.824-14.649-33.026-4.817-4.053-13.645-11.434-22.483-28.669-17.089 2.11-14.31-2.935-24.216-19.947-26.759 4.024-11.824 6.61-23.427-8.188-32.356 9.13-9.64 11.874-20.442 4.817-33.026 14.377-5.55 21.83-14.295 17.09-28.668 16.59-1.07 26.362-7.1 26.759-19.947 13.323 4.25 24.902 3.704 32.355-8.188 11.764 9.155 22.736 10.391 33.026 4.817 5.268 11.21 13.148 19.062 28.669 17.089-.02 14.106 6.708 22.965 19.947 26.76-4.957 12.182-3.052 23.117 8.188 32.355-11.748 11.008-12.206 22.017-4.817 33.026z" style="fill:#f34944;fill-opacity:1;stroke:#000;stroke-width:3;stroke-linejoin:round;stroke-miterlimit:4;stroke-dashoffset:0;stroke-opacity:1;stroke-dasharray:none"/><path transform="matrix(1.56517 0 0 1.56517 -196.504 -230.009)" d="M379.688 377.94a34.766 34.766 0 1 1-69.532 0 34.766 34.766 0 1 1 69.531 0z" style="opacity:1;fill:none;fill-opacity:1;stroke:#000;stroke-width:1.91671789;stroke-linejoin:round;stroke-miterlimit:4;stroke-dasharray:none;stroke-dashoffset:0;stroke-opacity:1"/><path transform="matrix(1.32921 0 0 1.32921 -115.115 -140.829)" d="M379.688 377.94a34.766 34.766 0 1 1-69.532 0 34.766 34.766 0 1 1 69.531 0z" style="opacity:1;fill:none;fill-opacity:1;stroke:#000;stroke-width:2.25697398;stroke-linejoin:round;stroke-miterlimit:4;stroke-dasharray:none;stroke-dashoffset:0;stroke-opacity:1;display:inline"/></g></svg>
